X: 1
T: Little Sky
R: march
M: 4/4
L: 1/8
K: Gmaj
G2 G3/2A/ B d2 G|AB/A/ GF G4|G2 G3/2A/ B d2 d|e2 d/B3/2 d2 gf|
e3/2g/ e/d3/2 B3 G/A/|B2 AG E G3|G2 G3/2A/ B d2 G|AB/A/ GF G4|
g3 d e4|B3/2B/ AG A4|g3 d e4|B3/2B/ AG d4|
g3 d e4|B3/2B/ AG E G3|G2 G3/2A/ B d2 G|AB/A/ GF G4:|

